client/src/assets/public/images/icons/red_search_compare.svg

<?xml version="1.0" encoding="UTF-8"?>
<svg width="93px" height="76px" viewBox="0 0 93 76" version="1.1" xmlns="http://www.w3.org/2000/svg" xmlns:xlink="http://www.w3.org/1999/xlink">
    <!-- Generator: Sketch 48.2 (47327) - http://www.bohemiancoding.com/sketch -->
    <title>compare 2</title>
    <desc>Created with Sketch.</desc>
    <defs></defs>
    <g id="Home-2" stroke="none" stroke-width="1" fill="none" fill-rule="evenodd" transform="translate(-156.000000, -1347.000000)">
        <g id="3-steps" transform="translate(75.000000, 1239.000000)">
            <g id="1" transform="translate(0.000000, 92.000000)">
                <g id="compare-2" transform="translate(81.000000, 16.000000)">
                    <rect id="Rectangle-14" stroke="#E14660" stroke-width="4" x="42" y="2" width="32" height="18" rx="6"></rect>
                    <rect id="Rectangle-14" stroke="#E14660" stroke-width="4" x="2" y="2" width="32" height="18" rx="6"></rect>
                    <rect id="Rectangle-14" stroke="#E14660" stroke-width="4" x="2" y="42" width="32" height="18" rx="6"></rect>
                    <path d="M3,25 L32,25 C32.5522847,25 33,25.4477153 33,26 L33,27 C33,27.5522847 32.5522847,28 32,28 L3,28 C2.44771525,28 2,27.5522847 2,27 L2,26 C2,25.4477153 2.44771525,25 3,25 Z" id="Path-2" fill-opacity="0.5" fill="#E14660"></path>
                    <path d="M3,30 L23,30 C23.5522847,30 24,30.4477153 24,31 L24,32 C24,32.5522847 23.5522847,33 23,33 L3,33 C2.44771525,33 2,32.5522847 2,32 L2,31 C2,30.4477153 2.44771525,30 3,30 Z" id="Path-2" fill-opacity="0.5" fill="#E14660"></path>
                    <path d="M3,65 L32,65 C32.5522847,65 33,65.4477153 33,66 L33,67 C33,67.5522847 32.5522847,68 32,68 L3,68 C2.44771525,68 2,67.5522847 2,67 L2,66 C2,65.4477153 2.44771525,65 3,65 Z" id="Path-2" fill-opacity="0.5" fill="#E14660"></path>
                    <path d="M3,70 L23,70 C23.5522847,70 24,70.4477153 24,71 L24,72 C24,72.5522847 23.5522847,73 23,73 L3,73 C2.44771525,73 2,72.5522847 2,72 L2,71 C2,70.4477153 2.44771525,70 3,70 Z" id="Path-2" fill-opacity="0.5" fill="#E14660"></path>
                    <path d="M43,25 L72,25 C72.5522847,25 73,25.4477153 73,26 L73,27 C73,27.5522847 72.5522847,28 72,28 L43,28 C42.4477153,28 42,27.5522847 42,27 L42,26 C42,25.4477153 42.4477153,25 43,25 Z" id="Path-2" fill-opacity="0.5" fill="#E14660"></path>
                    <path d="M43,30 L63,30 C63.5522847,30 64,30.4477153 64,31 L64,32 C64,32.5522847 63.5522847,33 63,33 L43,33 C42.4477153,33 42,32.5522847 42,32 L42,31 C42,30.4477153 42.4477153,30 43,30 Z" id="Path-2" fill-opacity="0.5" fill="#E14660"></path>
                    <circle id="Oval-2" fill-opacity="0.4" fill="#E14660" cx="62" cy="43" r="3"></circle>
                    <circle id="Oval-2" fill-opacity="0.4" fill="#E14660" transform="translate(79.000000, 41.000000) scale(-1, 1) translate(-79.000000, -41.000000) " cx="79" cy="41" r="3"></circle>
                    <circle id="Oval-2" fill-opacity="0.4" fill="#E14660" cx="81.5" cy="30.5" r="1.5"></circle>
                    <circle id="Oval-2" fill-opacity="0.4" fill="#E14660" cx="91" cy="47" r="2"></circle>
                    <circle id="Oval-2" fill-opacity="0.4" fill="#E14660" cx="92" cy="33" r="1"></circle>
                    <circle id="Oval-2" fill-opacity="0.4" fill="#E14660" cx="85" cy="57" r="1"></circle>
                    <path d="M66.5882353,46.8823529 C61.2321116,46.8823529 56.8823529,51.2321116 56.8823529,56.5882353 C56.8823529,61.9443591 61.2321116,66.2941176 66.5882353,66.2941176 C71.9443591,66.2941176 76.2941176,61.9443591 76.2941176,56.5882353 C76.2941176,51.2321116 71.9443591,46.8823529 66.5882353,46.8823529 Z M76.588638,65.7845763 L83.4902661,72.6862044 C84.2483427,73.444281 84.2483427,74.673366 83.4902661,75.4314426 C82.7321895,76.1895191 81.5031045,76.1895191 80.7450279,75.4314426 L73.5634383,68.2498529 C71.5239781,69.4730536 69.1376994,70.1764705 66.5882353,70.1764705 C59.0879472,70.1764705 53,64.0885232 53,56.5882353 C53,49.0879472 59.0879472,43 66.5882353,43 C74.0885232,43 80.1764705,49.0879472 80.1764705,56.5882353 C80.1764705,60.1339999 78.8158571,63.3641159 76.588638,65.7845763 Z" id="Shape" fill="#E14660" fill-rule="nonzero"></path>
                </g>
            </g>
        </g>
    </g>
</svg>

<svg xmlns="http://www.w3.org/2000/svg" width="93" height="76"><style><![CDATA[.B{fill-opacity:.4}]]></style><g fill="none" fill-rule="evenodd"><g stroke="#e14660" stroke-width="4"><rect x="42" y="2" width="32" height="18" rx="6"/><rect x="2" y="2" width="32" height="18" rx="6"/><rect x="2" y="42" width="32" height="18" rx="6"/></g><g fill="#e14660"><path d="M3 25h29a1 1 0 0 1 1 1v1a1 1 0 0 1-1 1H3a1 1 0 0 1-1-1v-1a1 1 0 0 1 1-1zm0 5h20a1 1 0 0 1 1 1v1a1 1 0 0 1-1 1H3a1 1 0 0 1-1-1v-1a1 1 0 0 1 1-1zm0 35h29a1 1 0 0 1 1 1v1a1 1 0 0 1-1 1H3a1 1 0 0 1-1-1v-1a1 1 0 0 1 1-1zm0 5h20a1 1 0 0 1 1 1v1a1 1 0 0 1-1 1H3a1 1 0 0 1-1-1v-1a1 1 0 0 1 1-1zm40-45h29a1 1 0 0 1 1 1v1a1 1 0 0 1-1 1H43a1 1 0 0 1-1-1v-1a1 1 0 0 1 1-1zm0 5h20a1 1 0 0 1 1 1v1a1 1 0 0 1-1 1H43a1 1 0 0 1-1-1v-1a1 1 0 0 1 1-1z" fill-opacity=".5"/><circle cx="62" cy="43" r="3" class="B"/><circle transform="matrix(-1 0 0 1 158 0)" cx="79" cy="41" r="3" class="B"/><circle cx="81.5" cy="30.5" r="1.5" class="B"/><circle cx="91" cy="47" r="2" class="B"/><circle cx="92" cy="33" r="1" class="B"/><circle cx="85" cy="57" r="1" class="B"/><path d="M66.588 46.882c-5.356 0-9.706 4.35-9.706 9.706s4.35 9.706 9.706 9.706 9.706-4.35 9.706-9.706-4.35-9.706-9.706-9.706zm10 18.902l6.902 6.902a1.94 1.94 0 1 1-2.745 2.745l-7.182-7.182a13.52 13.52 0 0 1-6.975 1.927C59.088 70.176 53 64.09 53 56.588S59.088 43 66.588 43s13.588 6.088 13.588 13.588a13.54 13.54 0 0 1-3.588 9.196z" fill-rule="nonzero"/></g></g></svg>
